X: 33
M: C|
L: 1/8
K: G
|:\
gdBd cedc | BdBd cedc |\
gdBd cedc |
afdf afc'a | bgdg bgd'b |
afdf afc'a | (bg).f.e d4 |\
ecGc ecge | dBGB dBgd |\
ecge (dc).B.A  | G2G2 G2z2 :|


